assets/Frame 224220.svg

<svg width="123" height="45" viewBox="0 0 123 45" fill="none" xmlns="http://www.w3.org/2000/svg">
<rect x="0.576172" y="8.37671" width="120.302" height="36.6508" rx="18.3254" transform="rotate(-3.56852 0.576172 8.37671)" fill="#FED202"/>
<path d="M23.4869 34.0592C21.3137 34.1947 19.5869 33.7414 18.3065 32.6993C17.026 31.6572 16.3183 30.0534 16.1832 27.888C16.0477 25.7149 16.5466 24.032 17.6799 22.8393C18.8127 21.6389 20.4502 20.9719 22.5923 20.8383C24.7422 20.7043 26.4127 20.9429 27.604 21.5543C28.803 22.1651 29.4442 23.138 29.5274 24.473C29.5405 24.6825 29.4813 24.8576 29.3498 24.9983C29.2261 25.1385 29.0594 25.2151 28.8499 25.2282L27.1152 25.3363C26.5875 25.3692 26.1235 25.1138 25.7234 24.57C25.22 23.869 24.3862 23.5548 23.222 23.6274C22.0656 23.6995 21.2732 24.0489 20.8448 24.6755C20.4236 25.2939 20.2549 26.2745 20.3387 27.6172C20.4224 28.9599 20.7196 29.9153 21.2303 30.4834C21.7488 31.051 22.5979 31.298 23.7776 31.2245C24.9651 31.1504 25.765 30.7343 26.1774 29.9762C26.5064 29.3791 26.9348 29.0641 27.4625 29.0312L29.1972 28.923C29.4067 28.91 29.5818 28.9692 29.7225 29.1006C29.8704 29.2239 29.9507 29.3864 29.9633 29.5882C30.0465 30.9231 29.5312 31.9681 28.4174 32.7232C27.3113 33.4779 25.6678 33.9232 23.4869 34.0592ZM44.9431 31.9731C44.9644 32.3146 44.7732 32.498 44.3696 32.5231L42.1693 32.6604C41.4242 32.7068 40.8077 32.3791 40.3198 31.6771L38.691 29.3594C37.9902 28.3669 37.0345 27.9083 35.8237 27.9839L36.0945 32.3263C36.1076 32.5358 36.0484 32.7109 35.9169 32.8516C35.7932 32.9918 35.6304 33.0681 35.4286 33.0807L32.8208 33.2434C32.6113 33.2564 32.4364 33.2011 32.2963 33.0774C32.1561 32.9537 32.0795 32.787 32.0664 32.5775L31.36 21.2499C31.3469 21.0404 31.4022 20.8655 31.5259 20.7253C31.6569 20.5769 31.8233 20.4964 32.0251 20.4838L34.6329 20.3212C34.8425 20.3081 35.0176 20.3673 35.1582 20.4988C35.2984 20.6225 35.375 20.7891 35.3881 20.9987L35.6582 25.3295C37.0086 25.2453 37.8995 24.6638 38.3309 23.585L39.3004 21.1404C39.4349 20.797 39.6471 20.5149 39.9372 20.2943C40.2273 20.0736 40.547 19.9524 40.8963 19.9306L43.0966 19.7934C43.4846 19.7692 43.6881 19.9084 43.707 20.2111C43.7176 20.3819 43.6691 20.603 43.5614 20.8747L42.2571 24.1349C42.0338 24.6787 41.7129 25.1545 41.2942 25.5624C40.8755 25.9703 40.4135 26.2445 39.908 26.3851C40.8806 26.6127 41.7507 27.2597 42.5184 28.326L44.6972 31.4041C44.8432 31.621 44.9251 31.8106 44.9431 31.9731ZM46.6188 31.67L45.9124 20.3424C45.8993 20.1328 45.9546 19.958 46.0783 19.8178C46.2093 19.6694 46.3757 19.5889 46.5775 19.5763L49.0107 19.4245C49.2202 19.4115 49.3953 19.4707 49.536 19.6022C49.6839 19.7254 49.7644 19.8918 49.7775 20.1013L50.2545 27.7501L53.8827 19.9622C53.9919 19.7138 54.1697 19.5041 54.4161 19.3329C54.6621 19.1539 54.9054 19.0569 55.146 19.0419L58.4057 18.8386C58.6153 18.8256 58.7904 18.8848 58.931 19.0163C59.079 19.1395 59.1595 19.3059 59.1725 19.5154L59.8789 30.843C59.892 31.0526 59.8328 31.2277 59.7013 31.3683C59.5776 31.5085 59.411 31.5851 59.2014 31.5982L56.7683 31.7499C56.5587 31.763 56.3839 31.7077 56.2437 31.584C56.103 31.4525 56.0264 31.2859 56.0138 31.0841L55.5376 23.447L51.9079 31.2116C51.7977 31.4444 51.6199 31.6542 51.3745 31.8409C51.1285 32.0198 50.8852 32.1168 50.6446 32.1318L47.3732 32.3358C47.1637 32.3489 46.9888 32.2936 46.8487 32.1699C46.7085 32.0461 46.6319 31.8795 46.6188 31.67ZM61.5321 30.7399L61.4457 29.3545C61.4326 29.145 61.488 28.9701 61.6117 28.8299C61.7427 28.6815 61.9129 28.6008 62.1225 28.5877L63.0306 28.5311L64.2255 22.0169C64.6687 19.6285 66.5434 18.3312 69.8497 18.125L75.1351 17.7953C75.3447 17.7823 75.5198 17.8415 75.6605 17.973C75.8084 18.0962 75.8889 18.2626 75.902 18.4721L76.6084 29.7997C76.621 30.0015 76.5618 30.1766 76.4308 30.325C76.3071 30.4652 76.1404 30.5418 75.9309 30.5549L62.2982 31.4051C62.0886 31.4181 61.9099 31.3631 61.762 31.2398C61.6213 31.1083 61.5447 30.9417 61.5321 30.7399ZM66.8375 28.2937L72.4489 27.9437L72.0045 20.8189L69.8973 20.9503C68.772 21.0205 68.0935 21.6355 67.862 22.7952L66.8375 28.2937ZM92.349 29.0168C92.3703 29.3583 92.1791 29.5416 91.7755 29.5668L89.5752 29.704C88.8301 29.7505 88.2136 29.4227 87.7257 28.7207L86.0969 26.4031C85.3961 25.4105 84.4404 24.952 83.2296 25.0275L83.5004 29.3699C83.5135 29.5795 83.4543 29.7546 83.3228 29.8952C83.1991 30.0354 83.0363 30.1118 82.8345 30.1244L80.2267 30.287C80.0172 30.3001 79.8423 30.2447 79.7022 30.121C79.562 29.9973 79.4854 29.8307 79.4723 29.6211L78.7659 18.2935C78.7528 18.084 78.8081 17.9091 78.9318 17.7689C79.0628 17.6205 79.2292 17.54 79.431 17.5274L82.0388 17.3648C82.2484 17.3517 82.4235 17.4109 82.5641 17.5424C82.7043 17.6661 82.7809 17.8328 82.794 18.0423L83.0641 22.3731C84.4145 22.2889 85.3054 21.7074 85.7368 20.6287L86.7063 18.184C86.8407 17.8406 87.053 17.5586 87.3431 17.3379C87.6332 17.1172 87.9529 16.996 88.3022 16.9742L90.5025 16.837C90.8905 16.8128 91.094 16.952 91.1129 17.2547C91.1235 17.4255 91.075 17.6467 90.9673 17.9183L89.6629 21.1785C89.4397 21.7223 89.1188 22.1981 88.7001 22.606C88.2814 23.0139 87.8194 23.2881 87.3139 23.4287C88.2865 23.6564 89.1566 24.3033 89.9243 25.3696L92.1031 28.4477C92.2491 28.6646 92.331 28.8543 92.349 29.0168ZM94.7152 28.542C93.6462 27.8918 93.071 26.9148 92.9897 25.6109C92.9084 24.307 93.3582 23.2739 94.3391 22.5114C95.3278 21.7486 96.6332 21.3165 98.2553 21.2154L102.109 20.9751C102.052 20.067 101.823 19.4463 101.42 19.113C101.017 18.7797 100.339 18.6428 99.3842 18.7024C98.4373 18.7614 97.7846 19.0397 97.4261 19.5374C97.0748 20.0268 96.6198 20.2889 96.061 20.3237L94.3263 20.4319C94.1168 20.445 93.938 20.3899 93.7901 20.2667C93.6494 20.1352 93.5728 19.9686 93.5602 19.7668C93.4213 17.5393 95.4668 16.2937 99.6967 16.0299C101.544 15.9147 103.052 16.2375 104.222 16.9982C105.391 17.7512 106.029 18.9931 106.137 20.7239L106.586 27.9302C106.599 28.1398 106.544 28.3146 106.42 28.4548C106.297 28.595 106.13 28.6716 105.92 28.6846L103.674 28.8248C103.464 28.8378 103.289 28.7825 103.149 28.6588C103.008 28.5273 102.932 28.3607 102.919 28.1589L102.897 27.798C101.725 28.7515 100.336 29.2745 98.7286 29.3669C97.1298 29.4666 95.792 29.1916 94.7152 28.542ZM98.6995 23.8407C98.1563 23.8745 97.7337 24.0334 97.432 24.3171C97.138 24.6003 97.0041 24.9515 97.0302 25.3706C97.0563 25.7897 97.2409 26.1249 97.5838 26.3762C97.9267 26.6276 98.3969 26.7346 98.9946 26.6973C100.19 26.6228 101.321 26.2016 102.387 25.4339L102.274 23.6178L98.6995 23.8407Z" fill="black"/>
</svg>

<svg width="123" height="45" fill="none" xmlns="http://www.w3.org/2000/svg"><rect x=".576" y="8.377" width="120.302" height="36.651" rx="18.325" transform="rotate(-3.569 .576 8.377)" fill="#FED202"/><path d="M23.487 34.06c-2.173.135-3.9-.319-5.18-1.36-1.281-1.043-1.989-2.647-2.124-4.812-.135-2.173.364-3.856 1.497-5.049 1.133-1.2 2.77-1.867 4.912-2 2.15-.135 3.82.104 5.012.715 1.199.611 1.84 1.584 1.923 2.919a.674.674 0 0 1-.177.525.695.695 0 0 1-.5.23l-1.735.108c-.527.033-.991-.222-1.392-.766-.503-.701-1.337-1.015-2.501-.943-1.156.073-1.949.422-2.377 1.049-.421.618-.59 1.599-.506 2.941.083 1.343.38 2.298.891 2.866.519.568 1.368.815 2.548.741 1.187-.074 1.987-.49 2.4-1.248.328-.597.757-.912 1.284-.945l1.735-.108a.675.675 0 0 1 .526.178.66.66 0 0 1 .24.487c.084 1.335-.432 2.38-1.546 3.135-1.106.755-2.75 1.2-4.93 1.336Zm21.456-2.087c.021.342-.17.525-.573.55l-2.2.137c-.746.047-1.362-.28-1.85-.983L38.69 29.36c-.7-.992-1.657-1.45-2.867-1.375l.27 4.342a.674.674 0 0 1-.177.526.68.68 0 0 1-.488.229l-2.608.162a.695.695 0 0 1-.525-.166.695.695 0 0 1-.23-.5L31.36 21.25a.694.694 0 0 1 .665-.766l2.608-.163a.674.674 0 0 1 .525.178c.14.123.217.29.23.5l.27 4.33c1.35-.084 2.242-.665 2.673-1.744l.97-2.445c.134-.343.346-.625.636-.846.29-.22.61-.342.96-.363l2.2-.138c.388-.024.591.115.61.418.01.17-.038.392-.146.664l-1.304 3.26a4.197 4.197 0 0 1-.963 1.427c-.418.408-.88.682-1.386.823.973.228 1.843.875 2.61 1.941l2.18 3.078c.145.217.227.407.245.57Zm1.676-.303-.707-11.328a.694.694 0 0 1 .666-.766l2.433-.152a.674.674 0 0 1 .525.178c.148.123.228.29.242.5l.477 7.648 3.628-7.788c.109-.248.287-.458.533-.63.246-.178.49-.275.73-.29l3.26-.203a.674.674 0 0 1 .525.177c.148.124.229.29.242.5l.706 11.327a.674.674 0 0 1-.178.525.694.694 0 0 1-.5.23l-2.433.152a.694.694 0 0 1-.524-.166.72.72 0 0 1-.23-.5l-.476-7.637-3.63 7.765c-.11.232-.288.442-.534.629-.245.179-.489.276-.73.29l-3.27.205a.694.694 0 0 1-.525-.166.695.695 0 0 1-.23-.5Zm14.913-.93-.086-1.385a.695.695 0 0 1 .677-.767l.908-.057 1.194-6.514c.444-2.389 2.318-3.686 5.625-3.892l5.285-.33a.675.675 0 0 1 .525.178c.148.123.229.29.242.5l.706 11.327a.698.698 0 0 1-.677.755l-13.633.85a.734.734 0 0 1-.536-.165.72.72 0 0 1-.23-.5Zm5.306-2.446 5.61-.35-.444-7.125-2.107.131c-1.125.07-1.803.686-2.035 1.845l-1.024 5.499Zm25.511.723c.021.341-.17.525-.574.55l-2.2.137c-.745.046-1.361-.281-1.85-.983l-1.628-2.318c-.7-.992-1.657-1.451-2.867-1.375l.27 4.342a.674.674 0 0 1-.177.525.68.68 0 0 1-.488.23l-2.608.162a.694.694 0 0 1-.525-.166.694.694 0 0 1-.23-.5l-.706-11.327a.694.694 0 0 1 .665-.767l2.608-.162a.674.674 0 0 1 .525.177c.14.124.217.29.23.5l.27 4.331c1.35-.084 2.241-.666 2.673-1.744l.97-2.445c.134-.343.346-.625.636-.846.29-.22.61-.342.96-.364l2.2-.137c.388-.024.591.115.61.418.01.17-.038.392-.146.663l-1.304 3.26a4.196 4.196 0 0 1-.963 1.428c-.419.408-.88.682-1.386.823.973.227 1.843.874 2.61 1.94l2.18 3.079c.145.217.227.406.245.569Zm2.366-.475c-1.069-.65-1.644-1.627-1.725-2.931-.082-1.304.368-2.337 1.35-3.1.988-.762 2.293-1.194 3.915-1.296l3.854-.24c-.057-.908-.286-1.529-.689-1.862-.403-.333-1.081-.47-2.036-.41-.947.058-1.6.337-1.958.834-.351.49-.806.752-1.365.787l-1.735.108a.735.735 0 0 1-.536-.165.72.72 0 0 1-.23-.5c-.139-2.228 1.907-3.473 6.137-3.737 1.847-.115 3.355.207 4.525.968 1.169.753 1.807 1.995 1.915 3.726l.449 7.206a.694.694 0 0 1-.166.525.692.692 0 0 1-.5.23l-2.246.14a.695.695 0 0 1-.525-.166.72.72 0 0 1-.23-.5l-.022-.361c-1.172.954-2.561 1.477-4.168 1.569-1.6.1-2.937-.175-4.014-.825Zm3.984-4.701c-.543.034-.965.192-1.267.476a1.285 1.285 0 0 0-.402 1.054c.026.419.21.754.554 1.005.343.252.813.359 1.41.321 1.196-.074 2.327-.495 3.393-1.263l-.113-1.816-3.575.223Z" fill="#000"/></svg>
